icon-themes/breeze_svg/cmd/sc_compressgraphic.svg

<svg viewBox="0 0 16 16" xmlns="http://www.w3.org/2000/svg"><path d="m2 2v11.28125.71875h12v-1-1-1-1-3h-1v2l-2-2-2 2-1.34375 1.34375-1.34375-1.34375h-.03125l-3.28125 3.28125v-9.28125h6v-1zm4 2c-.5522848 0-1.0443212.231821-1.40625.59375-.3619287.361929-.59375.853965-.59375 1.40625 0 1.10457.89543 2 2 2 .552285 0 1.0443213-.231821 1.40625-.59375.3619288-.361929.59375-.853965.59375-1.40625 0-1.104569-.8954305-2-2-2z" fill="#4d4d4d"/><path d="m12 1v3.09375l-2-2v1.40625l2.28125 2.3125.21875.1875.21875-.1875 2.28125-2.3125v-1.40625l-2 2v-3.09375z" fill="#1d99f3"/></svg>

<svg viewBox="0 0 16 16" xmlns="http://www.w3.org/2000/svg">
  <path
     style="fill:#4d4d4d"
     d="M 2 2 L 2 13.28125 L 2 14 L 14 14 L 14 13 L 14 12 L 14 11 L 14 10 L 14 7 L 13 7 L 13 9 L 11 7 L 9 9 L 7.65625 10.34375 L 6.3125 9 L 6.28125 9 L 3 12.28125 L 3 3 L 9 3 L 9 2 L 2 2 z M 6 4 C 5.4477152 4 4.9556788 4.231821 4.59375 4.59375 C 4.2318213 4.955679 4 5.447715 4 6 C 4 7.10457 4.89543 8 6 8 C 6.552285 8 7.0443213 7.768179 7.40625 7.40625 C 7.7681788 7.044321 8 6.552285 8 6 C 8 4.895431 7.1045695 4 6 4 z "
     />
  <path
     style="fill:#1d99f3"
     d="m 12,1 v 3.09375 l -2,-2 V 3.5 L 12.28125,5.8125 12.5,6 12.71875,5.8125 15,3.5 V 2.09375 l -2,2 V 1 Z"
     />
</svg>
